src/assets/icons/svg/permission.svg

<?xml version="1.0" standalone="no"?><!DOCTYPE svg PUBLIC "-//W3C//DTD SVG 1.1//EN" "http://www.w3.org/Graphics/SVG/1.1/DTD/svg11.dtd"><svg t="1650953176563" class="icon" viewBox="0 0 1024 1024" version="1.1" xmlns="http://www.w3.org/2000/svg" p-id="3215" xmlns:xlink="http://www.w3.org/1999/xlink" width="200" height="200"><defs><style type="text/css"></style></defs><path d="M959.786667 148.906667l-44.330667-0.725333c-1.024 0-100.437333-2.048-203.050667-41.728-105.301333-40.789333-173.141333-87.552-173.781333-88.021333L511.872 0 485.248 18.474667C484.608 18.901333 416.768 65.706667 311.466667 106.453333 208.938667 146.218667 109.482667 148.181333 108.544 148.181333L64 148.906667l0 430.464C64 795.477333 355.328 1024 511.957333 1024 668.714667 1024 960 795.477333 960 579.370667L959.786667 148.906667zM321.877333 772.48 321.877333 355.413333 282.112 355.413333 282.112 317.482667 441.173333 317.482667l0 189.610667 200.192-189.610667 157.696 0L321.877333 772.48z" p-id="3216"></path></svg>

<svg class="icon" viewBox="0 0 1024 1024" xmlns="http://www.w3.org/2000/svg" width="200" height="200"><path d="m959.787 148.907-44.331-.726c-1.024 0-100.437-2.048-203.05-41.728-105.302-40.789-173.142-87.552-173.782-88.021L511.872 0l-26.624 18.475c-.64.426-68.48 47.232-173.781 87.978-102.528 39.766-201.984 41.728-202.923 41.728L64 148.907V579.37C64 795.477 355.328 1024 511.957 1024 668.715 1024 960 795.477 960 579.37l-.213-430.463zM321.877 772.48V355.413h-39.765v-37.93h159.061v189.61l200.192-189.61h157.696L321.877 772.48z"/></svg>
